X:141
T:Durham Rangers
M:4/4
L:1/8
R:reel
K:Dmaj
FG |:AB AF A2 de |fg fe d3 A |Bc dB AB AF |G2 E2 E2 FG |
AB AF A2 de |fg fe d3 A |Bc dB AB AG |1F2 D2 D2 FG :|2F2 D2 D2 ag |:
fe fg af df |fe fg a2 gf |g2 bg f2 af |g2 e2 e2 FG |
AB AF A2 de |fg fe d3 A |Bc dB AB AG |1F2 D2 D2 ag :|2F2 D2 D4 |]
